svgs/solid/candle-holder.svg

<svg xmlns="http://www.w3.org/2000/svg" viewBox="0 0 448 512"><!-- Font Awesome Pro 5.15.3 by @fontawesome - https://fontawesome.com License - https://fontawesome.com/license (Commercial License) --><path d="M160 192c45.93 0 78-32.61 78-79.29C238 82.72 205.41 37.82 160 0c-45.62 38-78 82.84-78 112.71 0 46.68 32.07 79.29 78 79.29zm216 176c-39.7 0-72 32.3-72 72 0 8.46 1.73 16.46 4.42 24H16c-8.84 0-16 7.16-16 16v16c0 8.84 7.16 16 16 16h360c39.7 0 72-32.3 72-72s-32.3-72-72-72zm0 96c-13.23 0-24-10.77-24-24s10.77-24 24-24 24 10.77 24 24-10.77 24-24 24zM256 256c0-17.67-14.33-32-32-32h-64v48c0 8.84-7.16 16-16 16s-16-7.16-16-16v-48H96c-17.67 0-32 14.33-32 32v176h192V256z"/></svg>

<svg xmlns="http://www.w3.org/2000/svg" viewBox="0 0 448 512"><!--! Font Awesome Pro 6.0.0 by @fontawesome - https://fontawesome.com License - https://fontawesome.com/license (Commercial License) Copyright 2022 Fonticons, Inc. --><path d="M376 368c-39.75 0-72 32.25-72 72c0 8.5 1.75 16.5 4.375 24H256V256c0-17.62-14.38-32-32-32H160v48c0 8.875-7.125 15.1-16 15.1S128 280.9 128 272V224H96C78.38 224 64 238.4 64 256v208H16C7.125 464 0 471.1 0 480v16C0 504.9 7.105 512 15.98 512H376c39.75 0 72-32.25 72-72S415.8 368 376 368zM376 464c-13.25 0-24-10.75-24-24S362.8 416 376 416s24 10.75 24 24S389.3 464 376 464zM160 191.1c45.88 0 77.1-32.62 77.1-79.25C237.1 82.75 205.4 37.88 160 0C114.4 38 81.1 82.88 81.1 112.8C81.1 159.4 114.1 191.1 160 191.1z"/></svg>
